F/falkordb.com logo.svg

<?xml version="1.0" ?>
<svg xmlns="http://www.w3.org/2000/svg" viewBox="0 0 165 44" fill="none">
	<g clip-path="url(#clip0_891_6728)">
		<path d="M29.6206 17.3574C28.5332 16.3139 26.8815 15.793 24.6598 15.793C22.4381 15.793 20.717 16.2852 19.1702 17.2661C19.1533 17.2751 19.1384 17.2858 19.1234 17.2966C17.2729 18.4887 18.2009 21.2614 20.432 21.2614H20.4676C20.5726 21.2614 20.6664 21.197 20.7095 21.1057C20.9382 20.6134 21.3057 20.2196 21.8081 19.9243C22.3612 19.6021 23.0062 19.441 23.7486 19.441C24.551 19.441 25.1529 19.6325 25.5466 20.0156C25.9422 20.4022 26.0753 20.9195 25.9403 21.5657L25.6835 22.8133H22.065C19.7814 22.8133 17.9403 23.2626 16.5379 24.163C15.1337 25.0634 14.26 26.3576 13.9113 28.0366C13.5888 29.5975 13.8438 30.8308 14.6837 31.7419C15.518 32.6548 16.8173 33.1094 18.5721 33.1094C20.1376 33.1094 21.4669 32.7407 22.5618 32.0014C23.3249 31.4841 23.8855 30.8415 24.2417 30.07H24.3392L23.833 32.5026C23.8011 32.6601 23.9267 32.8069 24.0917 32.8069H26.199C27.4627 32.8069 28.5464 31.9531 28.792 30.7699L30.6987 21.5657C31.0624 19.8044 30.7043 18.4028 29.6206 17.3592V17.3574ZM24.7779 27.1845C24.6204 27.9542 24.1892 28.5772 23.488 29.0515C22.7849 29.5276 21.9713 29.7657 21.0395 29.7657C20.1939 29.7657 19.5677 29.5688 19.1627 29.1732C18.7596 28.7794 18.6265 28.237 18.769 27.5479C18.904 26.9017 19.234 26.3808 19.7608 25.9834C20.2858 25.5896 20.9063 25.3927 21.6263 25.3927H25.1472L24.7779 27.1845Z" fill="#F7F3EF"/>
		<path d="M42.3361 28.7047H39.1695C38.5995 28.7047 38.1721 28.5382 37.8946 28.2035C37.6134 27.8705 37.5309 27.4302 37.6452 26.8824L40.9487 10.9335C40.9806 10.7778 40.855 10.6328 40.6881 10.6328H33.1681C33.0406 10.6328 32.9337 10.7187 32.9075 10.8351L32.1632 14.4312C32.1313 14.5869 32.2569 14.7319 32.4219 14.7319H35.0804C35.2473 14.7319 35.3729 14.8787 35.341 15.0344L32.8869 26.8824C32.6431 28.0567 32.6881 29.0913 33.0219 29.9809C33.3556 30.8723 33.9368 31.5669 34.7636 32.0627C35.5904 32.5603 36.6197 32.8073 37.8458 32.8073H41.5937C41.7212 32.8073 41.828 32.7214 41.8543 32.6033L42.5986 29.0072C42.6305 28.8514 42.5048 28.7064 42.3399 28.7064L42.3361 28.7047Z" fill="#F7F3EF"/>
		<path d="M61.5757 16.0975H56.9467C56.8642 16.0975 56.7854 16.1351 56.7348 16.1978L51.8583 22.4144H50.3041L52.6814 10.9316C52.7133 10.7758 52.5876 10.6309 52.4227 10.6309H48.2024C48.0768 10.6309 47.968 10.7168 47.9436 10.8331L43.4571 32.5029C43.4252 32.6586 43.5509 32.8036 43.7158 32.8036H45.9807C47.2424 32.8036 48.328 31.9516 48.5736 30.7702L49.511 26.2432H51.0334L53.2926 32.6318C53.3282 32.7338 53.4294 32.8036 53.5419 32.8036H58.3697C58.5534 32.8036 58.6809 32.63 58.619 32.4671L55.5649 24.2689L61.7838 16.5038C61.9169 16.3374 61.7932 16.0975 61.5738 16.0975H61.5757Z" fill="#F7F3EF"/>
		<path d="M76.2803 18.9666C75.8622 17.9642 75.146 17.1856 74.1317 16.6289C73.1155 16.0722 71.8256 15.793 70.2601 15.793C68.6946 15.793 67.3166 16.0722 66.0586 16.6289C64.8024 17.1856 63.7563 17.9642 62.9257 18.9666C62.0933 19.969 61.5402 21.1379 61.2627 22.475L60.4453 26.4238C60.1678 27.7591 60.2372 28.9298 60.6534 29.9322C61.0696 30.9346 61.7914 31.715 62.817 32.2717C63.8444 32.8284 65.1287 33.1076 66.6717 33.1076C68.2147 33.1076 69.6414 32.8284 70.8882 32.2717C72.135 31.715 73.1755 30.9346 74.0061 29.9322C74.8367 28.9298 75.3916 27.7609 75.6672 26.4238L76.4846 22.475C76.7602 21.1379 76.6909 19.969 76.2765 18.9666H76.2803ZM71.7319 22.4768L70.9145 26.4256C70.7345 27.2955 70.352 27.9686 69.7671 28.4447C69.1821 28.919 68.4247 29.1589 67.4947 29.1589C66.5648 29.1589 65.9311 28.9208 65.5318 28.4447C65.1324 27.9686 65.0256 27.2955 65.2055 26.4256L66.023 22.4768C66.2086 21.5872 66.5967 20.907 67.1891 20.4416C67.7816 19.9762 68.5334 19.7435 69.4446 19.7435C70.3558 19.7435 71.0345 19.9762 71.4263 20.4416C71.8163 20.907 71.9175 21.5872 71.7338 22.4768H71.7319Z" fill="#F7F3EF"/>
		<path d="M93.8233 22.1725C93.7408 22.5717 93.5158 22.9118 93.2102 23.1535C92.9008 23.3933 92.5071 23.5365 92.0815 23.5365H88.7874C88.6206 23.5365 88.4968 23.3933 88.5287 23.2358L88.6881 22.4732C88.8755 21.5621 88.7612 20.8533 88.3506 20.3485C87.9381 19.8419 87.295 19.5896 86.4307 19.5896C85.5196 19.5896 84.7752 19.8419 84.194 20.3485C83.6128 20.8533 83.2285 21.5621 83.0391 22.4732L81.3236 30.7663C81.078 31.9495 79.9906 32.8033 78.7307 32.8033H76.4659C76.299 32.8033 76.1753 32.6566 76.2072 32.5008L79.5613 16.2995C79.5857 16.1814 79.6963 16.0973 79.82 16.0973H83.7216C83.8884 16.0973 84.0141 16.2405 83.9841 16.398L83.3841 19.2853H83.4347C83.8209 18.4171 84.3328 17.7083 84.9684 17.1605C86.0239 16.2494 87.3869 15.793 89.0574 15.793C90.981 15.793 92.3609 16.3514 93.1989 17.463C94.037 18.5782 94.2451 20.148 93.8251 22.1725H93.8233Z" fill="#F7F3EF"/>
		<path d="M163.09 21.7573C163.037 22.0222 162.932 22.2836 162.816 22.5163C162.638 22.876 162.405 23.2179 162.122 23.5115C161.483 24.1792 160.59 24.5658 159.659 24.6965C158.843 24.8092 158.013 24.7341 157.197 24.6589C156.381 24.5837 155.512 24.5372 154.666 24.5246C152.975 24.5014 151.284 24.6106 149.611 24.8522C147.588 25.144 145.944 25.6291 144.109 26.5062C144.079 26.5205 144.051 26.5348 144.022 26.5491C143.306 26.9107 142.635 27.3367 142.024 27.8379C139.609 29.8212 138.441 32.7372 137.483 35.56C136.83 37.4896 136.191 39.4998 134.727 41.0213C132.471 43.3608 128.716 43.9998 125.311 43.9998H109.15C108.963 43.9998 108.822 43.8387 108.86 43.6615L109.21 41.9378C109.495 40.5344 110.785 39.5213 112.281 39.5213H123.527C126.427 39.5213 129.53 39.1346 131.137 37.0153C132.038 35.8249 132.299 34.3499 132.666 32.9448C133.956 28.0312 137.168 23.1947 142.32 21.2579C140.801 20.3521 139.699 18.8879 139.313 17.2787C138.608 14.3055 140.276 11.3144 140.432 8.2768C140.5 6.98263 140.181 5.52557 138.992 4.80778C138.16 4.30479 137.091 4.28868 136.09 4.28868C132.333 4.29226 128.386 4.29405 124.016 4.29763H120.817C118.853 4.29763 117.377 2.58818 117.754 0.748063L117.859 0.225382C117.887 0.0929225 118.007 -0.00373754 118.149 -0.00373754C120.474 -0.00373754 133.049 0.00879246 137.474 -0.00373754C140.029 -0.00910754 142.898 0.103662 144.628 1.80237C145.202 2.36622 145.569 3.02136 145.783 3.73199C145.794 3.76063 145.802 3.78927 145.809 3.8197C146.306 5.55958 145.914 7.61092 145.415 9.42419C144.772 11.7816 144.082 14.5221 145.462 16.7757C146.01 17.6707 146.868 18.333 147.888 18.6839C148.458 18.8808 148.702 18.9792 149.308 18.9738C149.611 18.9703 149.911 18.9434 150.211 18.8915C150.808 18.7931 151.452 18.6534 151.991 18.5532C152.247 18.5049 152.506 18.4619 152.767 18.4261C153.474 18.3312 154.229 18.3133 154.951 18.4494C155.478 18.5496 155.993 18.7358 156.434 19.0329C156.905 19.348 157.18 19.74 157.428 20.2268C157.566 20.4989 157.739 20.7746 158.016 20.916C158.517 21.1702 159.295 21.0001 159.833 20.959C160.394 20.916 160.95 20.8337 161.509 20.771C161.781 20.7406 162.053 20.7137 162.327 20.703C162.542 20.694 162.777 20.7209 162.936 20.8712C163.052 20.9804 163.107 21.138 163.12 21.2937C163.131 21.444 163.118 21.5998 163.088 21.7519L163.09 21.7573Z" fill="#F7F3EF"/>
		<path d="M17.0966 10.6292H4.67196C4.54634 10.6292 4.4376 10.7152 4.41323 10.8333L0.005456 32.5048C-0.0264165 32.6606 0.0991985 32.8055 0.264185 32.8055H2.84398C4.10763 32.8055 5.19692 31.9481 5.43877 30.7632L6.68555 24.6431C6.70992 24.525 6.81866 24.4373 6.94428 24.4373H11.5527C12.8201 24.4373 13.9075 23.5799 14.1475 22.3931L14.4324 20.9898C14.4643 20.8358 14.3387 20.689 14.1718 20.689H7.80484C7.63985 20.689 7.51236 20.544 7.54611 20.3883L8.73476 14.5798C8.75914 14.4616 8.86788 14.3757 8.99349 14.3757H14.4774C15.7448 14.3757 16.8322 13.5183 17.0722 12.3315L17.3572 10.9282C17.3891 10.7724 17.2635 10.6274 17.0966 10.6274V10.6292Z" fill="#F7F3EF"/>
		<path d="M113.659 13.9852C113.215 12.9219 112.454 12.0967 111.383 11.5096C110.309 10.926 108.97 10.6289 107.36 10.6289H100.151C99.971 10.6289 99.8173 10.7506 99.7835 10.9171L95.342 32.3774C95.297 32.5994 95.4732 32.8052 95.7095 32.8052H102.77C104.377 32.8052 105.841 32.5063 107.157 31.9102C108.477 31.3106 109.583 30.4746 110.47 29.4042C111.357 28.3302 111.948 27.0844 112.242 25.6649L113.882 17.7388C114.181 16.2996 114.107 15.0466 113.661 13.9852H113.659ZM109.126 17.7406L107.482 25.6667C107.302 26.5402 106.861 27.2365 106.162 27.7628C105.459 28.2926 104.621 28.5558 103.649 28.5558H100.892L103.723 14.8855H106.48C107.452 14.8855 108.183 15.1487 108.665 15.6749C109.147 16.2012 109.304 16.8903 109.128 17.7424L109.126 17.7406Z" fill="#F7F3EF"/>
		<path d="M130.308 12.1629C129.127 11.1408 127.359 10.6289 125.01 10.6289H117.867C117.689 10.6289 117.533 10.7506 117.499 10.9171L113.054 32.3774C113.009 32.5994 113.185 32.8052 113.421 32.8052H120.707C122.333 32.8052 123.795 32.5421 125.087 32.0158C126.38 31.4896 127.451 30.7449 128.293 29.7801C129.138 28.8189 129.693 27.6912 129.965 26.3952C130.198 25.2622 130.13 24.3099 129.763 23.5384C129.391 22.7723 128.821 22.1941 128.041 21.8075C127.265 21.4244 126.358 21.2418 125.317 21.2597L125.336 21.172C126.266 21.172 127.168 20.9679 128.049 20.5616C128.925 20.1571 129.674 19.5896 130.303 18.8593C130.931 18.1326 131.343 17.2823 131.546 16.3104C131.906 14.5687 131.491 13.1832 130.31 12.1611L130.308 12.1629ZM125.224 26.1554C125.029 27.0862 124.581 27.8129 123.881 28.3392C123.182 28.869 122.308 29.1321 121.277 29.1321H118.328L119.567 23.1464H122.516C123.549 23.1464 124.311 23.4167 124.792 23.9537C125.27 24.4871 125.417 25.2246 125.225 26.1554H125.224ZM126.628 16.919C126.459 17.7298 126.062 18.3724 125.434 18.8468C124.805 19.3211 124.026 19.5628 123.096 19.5628H120.308L121.393 14.3074H124.185C125.115 14.3074 125.795 14.5347 126.232 14.9911C126.665 15.4476 126.798 16.0902 126.626 16.919H126.628Z" fill="#F7F3EF"/>
	</g>
	<defs>
		<clipPath id="clip0_891_6728">
			<rect width="165" height="44" fill="white"/>
		</clipPath>
	</defs>
</svg>

<?xml version="1.0" ?>
<svg xmlns="http://www.w3.org/2000/svg" xmlns:v="https://vecta.io/nano" viewBox="0 0 1200 323.68" fill="none">
	<g clip-path="url(#A)" transform="matrix(7.356395 0 0 7.356395 -.003592 0)" fill="#27262b">
		<path d="M29.621 17.357c-1.087-1.044-2.739-1.564-4.961-1.564s-3.943.492-5.49 1.473a.41.41 0 0 0-.047.03c-1.851 1.192-.922 3.965 1.309 3.965h.036a.27.27 0 0 0 .242-.156c.229-.492.596-.886 1.099-1.181.553-.322 1.198-.483 1.941-.483.802 0 1.404.192 1.798.575s.529.904.394 1.55l-.257 1.248h-3.618c-2.284 0-4.125.449-5.527 1.35s-2.278 2.195-2.627 3.874c-.322 1.561-.068 2.794.772 3.705.834.913 2.134 1.368 3.888 1.368 1.566 0 2.895-.369 3.99-1.108.763-.517 1.324-1.16 1.68-1.931h.098l-.506 2.433c-.032.157.094.304.259.304h2.107c1.264 0 2.347-.854 2.593-2.037l1.907-9.204c.364-1.761.006-3.163-1.078-4.206zm-4.843 9.827c-.157.77-.589 1.393-1.29 1.867s-1.517.714-2.448.714c-.846 0-1.472-.197-1.877-.593s-.536-.936-.394-1.625a2.55 2.55 0 0 1 .992-1.564c.525-.394 1.145-.591 1.866-.591h3.521zm17.558 1.521H39.17c-.57 0-.997-.166-1.275-.501s-.364-.773-.249-1.321l3.303-15.949c.032-.156-.094-.301-.261-.301h-7.52c-.127 0-.234.086-.261.202l-.744 3.596c-.032.156.094.301.259.301h2.659c.167 0 .292.147.261.303l-2.454 11.848c-.244 1.174-.199 2.209.135 3.099a4.01 4.01 0 0 0 1.742 2.082c.827.496 1.856.745 3.082.745h3.748c.127 0 .234-.086.261-.204l.744-3.596c.032-.156-.094-.301-.259-.301zm19.24-12.607h-4.629c-.083 0-.161.038-.212.1l-4.876 6.217h-1.554l2.377-11.483c.032-.156-.094-.301-.259-.301h-4.22c-.126 0-.234.086-.259.202l-4.486 21.67c-.032.156.094.301.259.301h2.265c1.262 0 2.347-.852 2.593-2.033l.937-4.527h1.522l2.259 6.389c.036.102.137.172.249.172h4.828c.184 0 .311-.174.249-.337l-3.054-8.198 6.219-7.765c.133-.166.009-.406-.21-.406zm14.704 2.869c-.418-1.002-1.134-1.781-2.149-2.338s-2.306-.836-3.872-.836-2.943.279-4.201.836-2.302 1.335-3.133 2.338-1.386 2.171-1.663 3.508l-.817 3.949c-.278 1.335-.208 2.506.208 3.508s1.138 1.783 2.164 2.34 2.312.836 3.855.836 2.97-.279 4.216-.836 2.287-1.337 3.118-2.34a7.91 7.91 0 0 0 1.661-3.508l.817-3.949c.276-1.337.206-2.506-.208-3.508zm-4.548 3.51l-.817 3.949c-.18.87-.562 1.543-1.147 2.019s-1.342.714-2.272.714-1.564-.238-1.963-.714-.506-1.149-.326-2.019l.817-3.949c.186-.89.574-1.57 1.166-2.035s1.344-.698 2.255-.698 1.59.233 1.982.698.491 1.146.308 2.035zm22.091-.304a1.69 1.69 0 0 1-.613.981 1.84 1.84 0 0 1-1.129.383h-3.294c-.167 0-.291-.143-.259-.301l.159-.763c.187-.911.073-1.62-.338-2.125s-1.056-.759-1.92-.759c-.911 0-1.656.252-2.237.759s-.966 1.214-1.155 2.125l-1.716 8.293c-.246 1.183-1.333 2.037-2.593 2.037h-2.265c-.167 0-.291-.147-.259-.303l3.354-16.201c.024-.118.135-.202.259-.202h3.902c.167 0 .293.143.263.301l-.6 2.887h.051c.386-.868.898-1.577 1.534-2.125 1.055-.911 2.418-1.367 4.089-1.367 1.924 0 3.303.558 4.141 1.67s1.046 2.685.626 4.709zm69.267-.416c-.053.265-.158.526-.274.759-.178.36-.411.702-.694.995-.639.668-1.532 1.054-2.463 1.185-.816.113-1.646.038-2.462-.038l-2.531-.134c-1.691-.023-3.382.086-5.055.328-2.023.292-3.667.777-5.502 1.654l-.087.043a10.88 10.88 0 0 0-1.998 1.289c-2.415 1.983-3.583 4.899-4.541 7.722-.653 1.93-1.292 3.94-2.756 5.461-2.256 2.34-6.011 2.978-9.416 2.978H109.15c-.187 0-.328-.161-.29-.338l.35-1.724c.285-1.403 1.575-2.416 3.071-2.416h11.246c2.9 0 6.003-.387 7.61-2.506.901-1.19 1.162-2.665 1.529-4.071 1.29-4.914 4.502-9.75 9.654-11.687-1.519-.906-2.621-2.37-3.007-3.979-.705-2.973.963-5.964 1.119-9.002.068-1.294-.251-2.751-1.44-3.469-.832-.503-1.901-.519-2.902-.519l-12.074.009h-3.199c-1.964 0-3.44-1.709-3.063-3.55l.105-.523c.028-.132.148-.229.29-.229h19.325c2.555-.005 5.424.107 7.154 1.806.574.564.941 1.219 1.155 1.93a.64.64 0 0 1 .026.088c.497 1.74.105 3.791-.394 5.604-.643 2.357-1.333 5.098.047 7.352.548.895 1.406 1.557 2.426 1.908.57.197.814.295 1.42.29.303-.003.603-.03.903-.082.597-.098 1.241-.238 1.78-.338.256-.048.515-.091.776-.127.707-.095 1.462-.113 2.184.023.527.1 1.042.286 1.483.584.471.315.746.707.994 1.194.138.272.311.548.588.689.501.254 1.279.084 1.817.043.561-.043 1.117-.125 1.676-.188a11.76 11.76 0 0 1 .818-.068c.215-.009.45.018.609.168.116.109.171.267.184.422a1.73 1.73 0 0 1-.032.458zM17.097 10.629H4.672c-.126 0-.234.086-.259.204L.005 32.505c-.032.156.094.301.259.301h2.58c1.264 0 2.353-.857 2.595-2.042l1.247-6.12c.024-.118.133-.206.259-.206h4.608c1.267 0 2.355-.857 2.595-2.044l.285-1.403c.032-.154-.094-.301-.261-.301H7.805c-.165 0-.292-.145-.259-.301l1.189-5.808c.024-.118.133-.204.259-.204h5.484c1.267 0 2.355-.857 2.595-2.044l.285-1.403c.032-.156-.094-.301-.261-.301zm96.562 3.356c-.444-1.063-1.205-1.889-2.276-2.476s-2.413-.881-4.023-.881h-7.209a.37.37 0 0 0-.368.288l-4.442 21.46c-.045.222.131.428.368.428h7.061c1.607 0 3.071-.299 4.387-.895a9.15 9.15 0 0 0 3.313-2.506c.887-1.07 1.478-2.32 1.772-3.739l1.64-7.926c.299-1.439.225-2.692-.221-3.754zm-4.533 3.755l-1.644 7.926a3.39 3.39 0 0 1-1.32 2.096c-.699.526-1.541.793-2.513.793h-2.757l2.831-13.67h2.757c.972 0 1.703.263 2.185.789s.639 1.215.463 2.068zm21.182-5.577c-1.181-1.022-2.949-1.534-5.298-1.534h-7.143c-.178 0-.334.122-.368.288l-4.445 21.46c-.045.222.131.428.367.428h7.286c1.626 0 3.088-.263 4.38-.789s2.364-1.271 3.206-2.236 1.4-2.089 1.672-3.385c.233-1.133.165-2.085-.202-2.857a3.67 3.67 0 0 0-1.722-1.731c-.776-.383-1.683-.566-2.724-.548l.019-.088a6.41 6.41 0 0 0 2.713-.61 6.58 6.58 0 0 0 2.254-1.702c.628-.727 1.04-1.577 1.243-2.549.36-1.742-.055-3.127-1.236-4.149zm-5.084 13.993c-.195.931-.643 1.657-1.343 2.184s-1.573.793-2.604.793h-2.949l1.239-5.986h2.949c1.033 0 1.795.27 2.276.807s.625 1.271.433 2.202zm1.404-9.236c-.169.811-.566 1.453-1.194 1.928s-1.408.716-2.338.716h-2.788l1.085-5.255h2.792c.93 0 1.61.227 2.047.684s.566 1.099.394 1.928z"/>
	</g>
	<defs>
		<clipPath id="A">
			<path fill="#fff" d="M0 0h165v44H0z"/>
		</clipPath>
	</defs>
</svg>
